SVG_Azure_All/Video Analyzer for Media.svg

<?xml version="1.0" encoding="UTF-8" standalone="no"?>
<!-- Generated by Microsoft Visio, SVG Export Video Analyzer for Media.svg Page-1 -->

<svg
   xmlns:dc="http://purl.org/dc/elements/1.1/"
   xmlns:cc="http://creativecommons.org/ns#"
   xmlns:rdf="http://www.w3.org/1999/02/22-rdf-syntax-ns#"
   xmlns:svg="http://www.w3.org/2000/svg"
   xmlns="http://www.w3.org/2000/svg"
   xmlns:sodipodi="http://sodipodi.sourceforge.net/DTD/sodipodi-0.dtd"
   xmlns:inkscape="http://www.inkscape.org/namespaces/inkscape"
   width="0.70935446in"
   height="0.78810257in"
   viewBox="0 0 51.073471 56.743279"
   xml:space="preserve"
   class="st9"
   version="1.1"
   id="svg90"
   sodipodi:docname="Video Analyzer for Media.svg"
   style="font-size:12px;overflow:visible;color-interpolation-filters:sRGB;fill:none;fill-rule:evenodd;stroke-linecap:square;stroke-miterlimit:3"
   inkscape:version="0.92.5 (2060ec1f9f, 2020-04-08)"><metadata
   id="metadata94"><rdf:RDF><cc:Work
       rdf:about=""><dc:format>image/svg+xml</dc:format><dc:type
         rdf:resource="http://purl.org/dc/dcmitype/StillImage" /></cc:Work></rdf:RDF></metadata><sodipodi:namedview
   pagecolor="#ffffff"
   bordercolor="#666666"
   borderopacity="1"
   objecttolerance="10"
   gridtolerance="10"
   guidetolerance="10"
   inkscape:pageopacity="0"
   inkscape:pageshadow="2"
   inkscape:window-width="640"
   inkscape:window-height="480"
   id="namedview92"
   showgrid="false"
   inkscape:zoom="1.8293348"
   inkscape:cx="34.048118"
   inkscape:cy="19.154873"
   inkscape:window-x="0"
   inkscape:window-y="0"
   inkscape:window-maximized="0"
   inkscape:current-layer="svg90" />
	<style
   type="text/css"
   id="style2">
	<![CDATA[
		.st1 {fill:url(#grad0-6);stroke:none;stroke-linecap:butt;stroke-width:6}
		.st2 {fill:url(#grad0-10);stroke:none;stroke-linecap:butt;stroke-width:6}
		.st3 {fill:#5ea0ef;stroke:none;stroke-linecap:butt;stroke-width:6}
		.st4 {fill:url(#grad0-16);stroke:none;stroke-linecap:butt;stroke-width:6}
		.st5 {fill:url(#grad6-22);stroke:none;stroke-linecap:butt;stroke-width:6}
		.st6 {fill:#50e6ff;stroke:none;stroke-linecap:butt;stroke-width:6}
		.st7 {fill:#9cebff;stroke:none;stroke-linecap:butt;stroke-width:6}
		.st8 {fill:#c3f1ff;stroke:none;stroke-linecap:butt;stroke-width:6}
		.st9 {fill:none;fill-rule:evenodd;font-size:12px;overflow:visible;stroke-linecap:square;stroke-miterlimit:3}
	]]>
	</style>

	<defs
   id="Patterns_And_Gradients">
		<linearGradient
   id="grad0-6"
   x1="-5.1965802e-06"
   y1="67.46398"
   x2="43.345981"
   y2="67.46398"
   gradientTransform="scale(1.1452042,0.8732067)"
   gradientUnits="userSpaceOnUse">
			<stop
   offset="0.115"
   stop-color="#5ea0ef"
   stop-opacity="1"
   id="stop4" />
			<stop
   offset="0.27"
   stop-color="#4595e8"
   stop-opacity="1"
   id="stop6" />
			<stop
   offset="0.53"
   stop-color="#1f85dd"
   stop-opacity="1"
   id="stop8" />
			<stop
   offset="0.74"
   stop-color="#087cd6"
   stop-opacity="1"
   id="stop10" />
			<stop
   offset="0.875"
   stop-color="#0078d4"
   stop-opacity="1"
   id="stop12" />
		</linearGradient>
		<linearGradient
   id="grad0-10"
   x1="0"
   y1="222.91155"
   x2="19.790392"
   y2="222.91155"
   gradientTransform="scale(2.5082879,0.39867832)"
   gradientUnits="userSpaceOnUse">
			<stop
   offset="0"
   stop-color="#0078d4"
   stop-opacity="1"
   id="stop15" />
			<stop
   offset="1"
   stop-color="#005ba1"
   stop-opacity="1"
   id="stop17" />
		</linearGradient>
		<linearGradient
   id="grad0-16"
   x1="-0.029453954"
   y1="126.14451"
   x2="30.646879"
   y2="126.14451"
   gradientTransform="scale(1.6207197,0.61700984)"
   gradientUnits="userSpaceOnUse">
			<stop
   offset="0"
   stop-color="#005ba1"
   stop-opacity="1"
   id="stop20" />
			<stop
   offset="1"
   stop-color="#0078d4"
   stop-opacity="1"
   id="stop22" />
		</linearGradient>
		<radialGradient
   id="grad6-22"
   cx="22.198536"
   cy="103.11829"
   r="31.07795"
   gradientTransform="scale(1.2951305,0.77212299)"
   fx="22.198536"
   fy="103.11829"
   gradientUnits="userSpaceOnUse">
			<stop
   offset="0.005"
   stop-color="#5ea0ef"
   stop-opacity="1"
   id="stop25" />
			<stop
   offset="0.49"
   stop-color="#5ea0ef"
   stop-opacity="1"
   id="stop27" />
			<stop
   offset="0.78"
   stop-color="#76b0f5"
   stop-opacity="1"
   id="stop29" />
			<stop
   offset="1"
   stop-color="#83b9f9"
   stop-opacity="1"
   id="stop31" />
		</radialGradient>
	</defs>
	<g
   id="g88"
   transform="translate(-5.9991834,-6.0010011)">
		<title
   id="title35">Page-1</title>
		<g
   id="group623-1"
   transform="translate(6.04692,-34.0157)">
			<title
   id="title37">Video Analyzer for Media</title>
			<g
   id="group624-2">
				<title
   id="title39">Sheet.624</title>
				<g
   id="shape625-3"
   transform="translate(1.38354)">
					<title
   id="title41">Sheet.625</title>
					<path
   d="m 49.64,58.91 v 36.07 a 1.74764,1.77673 0 0 1 -1.08,1.64 c -0.21,0.09 -0.44,0.14 -0.67,0.14 H 1.75 A 1.74818,1.77729 0 0 1 0.51,96.24 1.74983,1.77896 0 0 1 0,94.98 V 58.91 Z"
   class="st1"
   id="path43"
   inkscape:connector-curvature="0"
   style="fill:url(#grad0-6);stroke:none;stroke-width:6;stroke-linecap:butt" />
				</g>
				<g
   id="shape626-7"
   transform="translate(1.38354,-29.9646)">
					<title
   id="title46">Sheet.626</title>
					<path
   d="m 0,88.87 h 49.64 v 7.89 H 0 Z"
   class="st2"
   id="path48"
   inkscape:connector-curvature="0"
   style="fill:url(#grad0-10);stroke:none;stroke-width:6;stroke-linecap:butt" />
				</g>
				<g
   id="shape627-11"
   transform="translate(4.48571,-31.542)">
					<title
   id="title51">Sheet.627</title>
					<path
   d="M 3.1,90.45 0,96.76 h 6.21 l 3.1,-6.31 z m 12.41,0 -3.1,6.31 h 6.21 l 3.1,-6.31 z m 12.41,0 -3.1,6.31 h 6.21 l 3.1,-6.31 z m 12.41,0 -3.1,6.31 h 6.21 l 3.1,-6.31 z"
   class="st3"
   id="path53"
   inkscape:connector-curvature="0"
   style="fill:#5ea0ef;stroke:none;stroke-width:6;stroke-linecap:butt" />
				</g>
				<g
   id="shape628-13"
   transform="translate(0,-37.8157)">
					<title
   id="title56">Sheet.628</title>
					<path
   d="M 1.38,96.76 0,90.81 A 1.74545,1.77451 0 0 1 1.3,88.67 L 46.19,77.88 a 1.7449,1.77395 0 0 1 2.1,1.32 l 1.38,5.95 z"
   class="st4"
   id="path58"
   inkscape:connector-curvature="0"
   style="fill:url(#grad0-16);stroke:none;stroke-width:6;stroke-linecap:butt" />
				</g>
				<g
   id="shape629-17"
   transform="translate(2.95269,-39.264)">
					<title
   id="title61">Sheet.629</title>
					<path
   d="m 42.27,81.18 4.45,5.41 -6.04,1.45 -4.45,-5.41 z m -12.08,2.9 4.45,5.42 -6.04,1.45 -4.45,-5.42 z m -12.07,2.9 4.44,5.42 -6.04,1.45 -4.44,-5.41 z M 6.04,89.89 10.49,95.31 4.45,96.76 0,91.34 Z"
   class="st3"
   id="path63"
   inkscape:connector-curvature="0"
   style="fill:#5ea0ef;stroke:none;stroke-width:6;stroke-linecap:butt" />
				</g>
				<g
   id="shape630-19"
   transform="translate(12.7065,-5.31461)">
					<title
   id="title66">Sheet.630</title>
					<path
   d="M 28.75,85.95 15.57,82.01 15.24,83.15 15.47,81.99 3.83,79.62 3.37,81.94 11.56,83.61 0,89.17 l 1,2.14 13.36,-6.43 2.06,11.88 2.29,-0.41 -2,-11.53 11.38,3.4 z"
   class="st5"
   id="path68"
   inkscape:connector-curvature="0"
   style="fill:url(#grad6-22);stroke:none;stroke-width:6;stroke-linecap:butt" />
				</g>
				<g
   id="shape631-23"
   transform="translate(13.9816,-18.9251)">
					<title
   id="title71">Sheet.631</title>
					<path
   d="m 2.33,96.76 a 2.3311886,2.37 -180 0 0 0,-4.74 2.3311886,2.37 -180 1 0 0,4.74 z"
   class="st6"
   id="path73"
   inkscape:connector-curvature="0"
   style="fill:#50e6ff;stroke:none;stroke-width:6;stroke-linecap:butt" />
				</g>
				<g
   id="shape632-25"
   transform="translate(10.8789,-3.15381)">
					<title
   id="title76">Sheet.632</title>
					<path
   d="m 5.43,80.98 a 2.3269,2.36564 -180 0 0 0,-4.73 2.3269,2.36564 -180 1 0 0,4.73 z m -3.1,9.47 a 2.3269,2.36564 -180 0 0 0,-4.73 2.3269,2.36564 -180 0 0 0,4.73 z m 17.06,6.31 a 2.3311886,2.37 -180 0 0 0,-4.74 2.3311886,2.37 -180 0 0 0,4.74 z m 10.86,-9.47 a 2.3269,2.36564 -180 0 0 0,-4.73 2.3269,2.36564 -180 0 0 0,4.73 z"
   class="st7"
   id="path78"
   inkscape:connector-curvature="0"
   style="fill:#9cebff;stroke:none;stroke-width:6;stroke-linecap:butt" />
				</g>
				<g
   id="shape633-27"
   transform="translate(23.2892,-11.5605)">
					<title
   id="title81">Sheet.633</title>
					<path
   d="M 12.98,88.84 0.92,82.03 a 0.620323,0.630651 -180 0 0 -0.921451,0.551054 L 0,96.2 a 0.619776,0.630094 -180 0 0 0.921451,0.551611 L 12.98,89.94 a 0.620871,0.631208 -180 0 0 0,-1.10211 z"
   class="st8"
   id="path83"
   inkscape:connector-curvature="0"
   style="fill:#c3f1ff;stroke:none;stroke-width:6;stroke-linecap:butt" />
				</g>
			</g>
		</g>
	</g>
</svg>

<?xml version="1.0" encoding="UTF-8" standalone="no"?>
<!DOCTYPE svg PUBLIC "-//W3C//DTD SVG 1.1//EN" "http://www.w3.org/Graphics/SVG/1.1/DTD/svg11.dtd">
<!-- Generated by Microsoft Visio, SVG Export Video Analyzer for Media.svg Page-1 -->
<svg xmlns="http://www.w3.org/2000/svg" xmlns:xlink="http://www.w3.org/1999/xlink" xmlns:ev="http://www.w3.org/2001/xml-events"
		width="0.87598in" height="1.34384in" viewBox="0 0 63.0705 96.7563" xml:space="preserve" color-interpolation-filters="sRGB"
		class="st9">
	<style type="text/css">
	<![CDATA[
		.st1 {fill:url(#grad0-6);stroke:none;stroke-linecap:butt;stroke-width:6}
		.st2 {fill:url(#grad0-10);stroke:none;stroke-linecap:butt;stroke-width:6}
		.st3 {fill:#5ea0ef;stroke:none;stroke-linecap:butt;stroke-width:6}
		.st4 {fill:url(#grad0-16);stroke:none;stroke-linecap:butt;stroke-width:6}
		.st5 {fill:url(#grad6-22);stroke:none;stroke-linecap:butt;stroke-width:6}
		.st6 {fill:#50e6ff;stroke:none;stroke-linecap:butt;stroke-width:6}
		.st7 {fill:#9cebff;stroke:none;stroke-linecap:butt;stroke-width:6}
		.st8 {fill:#c3f1ff;stroke:none;stroke-linecap:butt;stroke-width:6}
		.st9 {fill:none;fill-rule:evenodd;font-size:12px;overflow:visible;stroke-linecap:square;stroke-miterlimit:3}
	]]>
	</style>

	<defs id="Patterns_And_Gradients">
		<linearGradient id="grad0-6" x1="0" y1="0" x2="1" y2="0" gradientTransform="rotate(90 0.5 0.5)">
			<stop offset="0.115" stop-color="#5ea0ef" stop-opacity="1"/>
			<stop offset="0.27" stop-color="#4595e8" stop-opacity="1"/>
			<stop offset="0.53" stop-color="#1f85dd" stop-opacity="1"/>
			<stop offset="0.74" stop-color="#087cd6" stop-opacity="1"/>
			<stop offset="0.875" stop-color="#0078d4" stop-opacity="1"/>
		</linearGradient>
		<linearGradient id="grad0-10" x1="0" y1="0" x2="1" y2="0" gradientTransform="rotate(90.099534133486 0.5 0.5)">
			<stop offset="0" stop-color="#0078d4" stop-opacity="1"/>
			<stop offset="1" stop-color="#005ba1" stop-opacity="1"/>
		</linearGradient>
		<linearGradient id="grad0-16" x1="0" y1="0" x2="1" y2="0" gradientTransform="rotate(-95.050093168411 0.5 0.5)">
			<stop offset="0" stop-color="#005ba1" stop-opacity="1"/>
			<stop offset="1" stop-color="#0078d4" stop-opacity="1"/>
		</linearGradient>
		<radialGradient id="grad6-22" cx="1" cy="0" r="1.4">
			<stop offset="0.005" stop-color="#5ea0ef" stop-opacity="1"/>
			<stop offset="0.49" stop-color="#5ea0ef" stop-opacity="1"/>
			<stop offset="0.78" stop-color="#76b0f5" stop-opacity="1"/>
			<stop offset="1" stop-color="#83b9f9" stop-opacity="1"/>
		</radialGradient>
	</defs>
	<g>
		<title>Page-1</title>
		<g id="group617-1" transform="translate(6.04692,-34.0157)">
			<title>Video Analyzer for Media</title>
			<g id="group618-2">
				<title>Sheet.618</title>
				<g id="shape619-3" transform="translate(1.38354,0)">
					<title>Sheet.619</title>
					<path d="M49.64 58.91 L49.64 94.98 A1.74764 1.77673 0 0 1 48.56 96.62 C48.35 96.71 48.12 96.76 47.89 96.76 L1.75
								 96.76 A1.74818 1.77729 0 0 1 0.51 96.24 A1.74983 1.77896 0 0 1 0 94.98 L0 58.91 L49.64 58.91 Z"
							class="st1"/>
				</g>
				<g id="shape620-7" transform="translate(1.38354,-29.9646)">
					<title>Sheet.620</title>
					<path d="M0 88.87 L49.64 88.87 L49.64 96.76 L0 96.76 L0 88.87 Z" class="st2"/>
				</g>
				<g id="shape621-11" transform="translate(4.48571,-31.542)">
					<title>Sheet.621</title>
					<path d="M3.1 90.45 L0 96.76 L6.21 96.76 L9.31 90.45 L3.1 90.45 ZM15.51 90.45 L12.41 96.76 L18.62 96.76 L21.72
								 90.45 L15.51 90.45 ZM27.92 90.45 L24.82 96.76 L31.03 96.76 L34.13 90.45 L27.92 90.45 ZM40.33 90.45
								 L37.23 96.76 L43.44 96.76 L46.54 90.45 L40.33 90.45 Z" class="st3"/>
				</g>
				<g id="shape622-13" transform="translate(2.51799E-13,-37.8157)">
					<title>Sheet.622</title>
					<path d="M1.38 96.76 L0 90.81 A1.74545 1.77451 0 0 1 1.3 88.67 L46.19 77.88 A1.7449 1.77395 0 0 1 48.29 79.2
								 L49.67 85.15 L1.38 96.76 Z" class="st4"/>
				</g>
				<g id="shape623-17" transform="translate(2.95269,-39.264)">
					<title>Sheet.623</title>
					<path d="M42.27 81.18 L46.72 86.59 L40.68 88.04 L36.23 82.63 L42.27 81.18 ZM30.19 84.08 L34.64 89.5 L28.6 90.95
								 L24.15 85.53 L30.19 84.08 ZM18.12 86.98 L22.56 92.4 L16.52 93.85 L12.08 88.44 L18.12 86.98 ZM6.04
								 89.89 L10.49 95.31 L4.45 96.76 L0 91.34 L6.04 89.89 L6.04 89.89 Z" class="st3"/>
				</g>
				<g id="shape624-19" transform="translate(12.7065,-5.31461)">
					<title>Sheet.624</title>
					<path d="M28.75 85.95 L15.57 82.01 L15.24 83.15 L15.47 81.99 L3.83 79.62 L3.37 81.94 L11.56 83.61 L0 89.17 L1
								 91.31 L14.36 84.88 L16.42 96.76 L18.71 96.35 L16.71 84.82 L28.09 88.22 L28.75 85.95 Z" class="st5"/>
				</g>
				<g id="shape625-23" transform="translate(13.9816,-18.9251)">
					<title>Sheet.625</title>
					<path d="M2.33 96.76 A2.3269 2.36564 -180 0 0 2.33 92.02 A2.3269 2.36564 -180 1 0 2.33 96.76 Z" class="st6"/>
				</g>
				<g id="shape626-25" transform="translate(10.8789,-3.15381)">
					<title>Sheet.626</title>
					<path d="M5.43 80.98 A2.3269 2.36564 -180 0 0 5.43 76.25 A2.3269 2.36564 -180 1 0 5.43 80.98 ZM2.33 90.45 A2.3269
								 2.36564 -180 0 0 2.33 85.72 A2.3269 2.36564 -180 0 0 2.33 90.45 ZM19.39 96.76 A2.3269 2.36564 -180
								 0 0 19.39 92.02 A2.3269 2.36564 -180 0 0 19.39 96.76 ZM30.25 87.29 A2.3269 2.36564 -180 0 0 30.25
								 82.56 A2.3269 2.36564 -180 0 0 30.25 87.29 Z" class="st7"/>
				</g>
				<g id="shape627-27" transform="translate(23.2892,-11.5605)">
					<title>Sheet.627</title>
					<path d="M12.98 88.84 L0.92 82.03 a0.620323 0.630651 -180 0 0 -0.921451 0.551054 L0 96.2 a0.619776 0.630094 -180
								 0 0 0.921451 0.551611 L12.98 89.94 a0.620871 0.631208 -180 0 0 -7.10543E-15 -1.10211 L12.98 88.84
								 Z" class="st8"/>
				</g>
			</g>
		</g>
	</g>
</svg>
